assets/images/kvadro-img2.svg

<svg width="240" height="31" viewBox="0 0 240 31" fill="none" xmlns="http://www.w3.org/2000/svg">
<g clip-path="url(#clip0_96_113)">
<path d="M96.5523 26.8093H74.4722L80.9889 5.97858L79.3898 3.56017H92.3073L86.7216 21.3386H98.2762L96.5613 26.8093H96.5523ZM104.405 3.56017H117.403L110.156 26.8048H99.6793L106.111 6.12693L104.405 3.5332V3.56017ZM132.69 3.56017L139.212 17.1311L142.726 5.89317L141.158 3.5377H153.546L146.294 26.7868H135.488L128.285 13.8721L124.241 26.8183H114.784L121.221 6.25728L119.439 3.56017H132.69ZM177.145 3.56017H190L182.744 26.8093H172.365L175.167 17.8683L164.316 17.8998L161.546 26.8138H151.332L157.711 6.34719L155.862 3.56017H168.78L165.96 12.5505H176.797L178.802 6.11793L177.131 3.5512L177.145 3.56017ZM214.65 3.56017L219.791 26.7823H208.655L208.437 24.0852H196.441L194 26.7823H183.911L202.468 6.52701L200.486 3.5332H214.664L214.65 3.56017ZM207.63 11.8673L200.949 19.145H207.63V11.8853V11.8673ZM226.129 3.5422H240L232.744 26.7823H221.759L228.085 6.50451L226.129 3.5332V3.5422Z" fill="#2C2D86"/>
<path fill-rule="evenodd" clip-rule="evenodd" d="M32.6815 0C50.7305 0 65.363 6.80123 65.363 15.1847C65.363 23.5683 50.7305 30.365 32.6815 30.365C14.6325 30.365 0 23.5683 0 15.1847C0 6.80123 14.637 0 32.6815 0ZM40.8196 2.53529C46.1648 2.74207 51.2517 4.6615 53.706 6.08647C55.3586 7.04394 56.049 7.88454 54.7172 7.88454C49.3274 7.95646 46.4944 8.38353 42.1292 12.1505C34.6904 18.5741 21.7238 28.4006 22.7528 23.5458C23.1982 21.469 30.4098 11.6335 23.7773 9.16119C22.7127 8.76111 19.5902 8.41947 16.49 9.5118C15.4093 9.89048 14.4122 10.4784 13.5546 11.2425C9.57683 14.47 5.80846 18.3988 5.755 17.1626C5.67928 15.5443 9.59019 8.94543 17.3897 5.99659C23.951 3.51974 33.6615 2.25209 40.8196 2.53079V2.53529ZM56.7706 16.1827C58.9978 22.3725 39.51 26.9082 37.02 27.1869C31.0646 27.8566 25.3318 28.0364 26.1871 27.2992C26.392 27.1239 34.7572 24.0987 40.7617 18.3763C43.216 16.0388 54.49 9.90289 56.7706 16.1827ZM18.049 22.6063C17.1091 24.8269 18.8107 26.7958 17.7773 27.1015C14.8909 26.8363 8.68598 23.9818 6.35636 20.6194C5.85747 19.9002 15.4343 12.1145 20.2806 12.3663C25.0201 12.6135 18.9443 20.5295 18.0535 22.6108L18.049 22.6063Z" fill="#2C2D86"/>
</g>
<defs>
<clipPath id="clip0_96_113">
<rect width="240" height="30.365" fill="white"/>
</clipPath>
</defs>
</svg>

<svg width="240" height="31" fill="none" xmlns="http://www.w3.org/2000/svg"><g clip-path="url(#a)" fill="#2C2D86"><path d="M96.552 26.81h-22.08L80.99 5.978l-1.6-2.419h12.918L86.722 21.34h11.554l-1.715 5.47h-.009Zm7.853-23.25h12.998l-7.247 23.245H99.679l6.432-20.678-1.706-2.594v.027Zm28.285 0 6.522 13.571 3.514-11.238-1.568-2.355h12.388l-7.252 23.249h-10.806l-7.203-12.915-4.044 12.946h-9.457l6.437-20.56-1.782-2.698h13.251Zm44.455 0H190l-7.256 23.25h-10.379l2.802-8.942-10.851.032-2.77 8.914h-10.214l6.379-20.467-1.849-2.787h12.918l-2.82 8.99h10.837l2.005-6.432-1.671-2.567.014.01Zm37.505 0 5.141 23.222h-11.136l-.218-2.697h-11.996L194 26.782h-10.089l18.557-20.255-1.982-2.994h14.178l-.014.027Zm-7.02 8.307-6.681 7.278h6.681v-7.278Zm18.499-8.325H240l-7.256 23.24h-10.985l6.326-20.277-1.956-2.972v.01Z"/><path fill-rule="evenodd" clip-rule="evenodd" d="M32.681 0c18.05 0 32.682 6.801 32.682 15.185 0 8.383-14.633 15.18-32.681 15.18C14.631 30.365 0 23.568 0 15.185 0 6.8 14.637 0 32.681 0Zm8.139 2.535c5.345.207 10.432 2.127 12.886 3.551 1.653.958 2.343 1.799 1.011 1.799-5.39.071-8.223.499-12.588 4.265-7.439 6.424-20.405 16.25-19.376 11.396.445-2.077 7.657-11.912 1.024-14.385-1.064-.4-4.187-.742-7.287.35a8.775 8.775 0 0 0-2.935 1.732c-3.978 3.227-7.747 7.156-7.8 5.92C5.679 15.544 9.59 8.945 17.39 5.997 23.95 3.52 33.66 2.252 40.82 2.53v.004Zm15.95 13.648c2.228 6.19-17.26 10.725-19.75 11.004-5.955.67-11.688.85-10.833.112.205-.175 8.57-3.2 14.575-8.923 2.454-2.337 13.728-8.473 16.009-2.193ZM18.05 22.606c-.94 2.22.762 4.19-.272 4.495-2.886-.265-9.091-3.12-11.42-6.482-.5-.719 9.077-8.505 13.924-8.253 4.74.248-1.337 8.163-2.227 10.245l-.005-.005Z"/></g><defs><clipPath id="a"><path fill="#fff" d="M0 0h240v30.365H0z"/></clipPath></defs></svg>
